X:1
T:Title
%%score 1 2
L:1/8
Q:1/4=85
M:2/4
K:C
V:1 treble nm="Grand Piano, Soprano"
V:2 bass nm="Choir Pad, Bass"
V:1
 EF Gc | BA G2 | GA Gc | ed c2 | EF Gc | BA G2 | GA Gc | ed c2 | [Gd][Gd] [Gd][DG] | %9
w: By~Stephen~Van~Rensselaer~Ford,~1891 * * *|||||||||
 [Gc][Gd] [Ge]2 | [Ge][Ge] [Bd][Ac] | [GB][^FA] G2 | [CE][DF] [EG][Ec] | [GB][FA] [EG]2 | %14
w: |||||
 [EG][FA] [EG][Ec] | [Ge][Fd] [Ec]2- | [Ec]4 |] %17
w: |||
V:2
 [C,,C,]2 [C,,C,]2 | [G,,G,]2 [C,,C,]2 | [C,,C,]2 [C,,C,]2 | [G,,G,]2 [C,,C,]2 | %4
 [C,,C,]2 [C,,C,]2 | [G,,G,]2 [C,,C,]2 | [C,,C,]2 [C,,C,]2 | [G,,G,]2 [C,,C,]2 | G,,G, G,,F, | %9
 E,G, C,2 | C,C, G,,C, | D,D, G,,2 | C,C, C,C, | G,,G,, C,2 | C,C, C,C, | G,G,, C,2- | C,4 |] %17

